resources/svg/apps.svg

<svg viewBox="0 0 24 24"><path fill="none" stroke="currentColor" stroke-width="2" d="M19 5h2V3h-2v2zm-8 0h2V3h-2v2zM3 5h2V3H3v2zm16 8h2v-2h-2v2zm-8 0h2v-2h-2v2zm-8 0h2v-2H3v2zm16 8h2v-2h-2v2zm-8 0h2v-2h-2v2zm-8 0h2v-2H3v2z"/></svg>

<svg xmlns="http://www.w3.org/2000/svg" viewBox="0 0 24 24" fill="currentColor"><path fill="none" stroke="currentColor" stroke-width="2" d="M19,5 L21,5 L21,3 L19,3 L19,5 Z M11,5 L13,5 L13,3 L11,3 L11,5 Z M3,5 L5,5 L5,3 L3,3 L3,5 Z M19,13 L21,13 L21,11 L19,11 L19,13 Z M11,13 L13,13 L13,11 L11,11 L11,13 Z M3,13 L5,13 L5,11 L3,11 L3,13 Z M19,21 L21,21 L21,19 L19,19 L19,21 Z M11,21 L13,21 L13,19 L11,19 L11,21 Z M3,21 L5,21 L5,19 L3,19 L3,21 Z"/></svg>
